X: 1397
T: Dressed in Rags
B: australian traditional tunes wiki
M:2/4
L:1/8
R: Reel
Q: 1/4=100
K:D
V:1 
A,A,/2D/2F2|EA,A,2|EE/2F/2G2|BAA2|dD cC|BA AF|
AG/2F/2 EC|BAA2|dD cC|BA AF|AG/2F/2 EC|EDD2||
% abcbook-tune_id 6342d53a02376e95d07acbbc


% abcbook-boost 0
% abcbook-tablature 
% abcbook-transpose 
% abcbook-lastupdated 1665324363060
% abcbook-soundfonts 
% abcbook-repeats 1
% NFF Book 2019
% Bush Traditions recording played by Ray Mulligan

